wp-content/themes/KOOEN/assets/img/common/recruit.svg

<svg fill="none" height="20" viewBox="0 0 76 20" width="76" xmlns="http://www.w3.org/2000/svg"><path d="m8.2 19-3-7.9h-2.05v7.9h-2.2v-17.7h4.575c.65 0 1.25833.09167 1.825.275.58333.16667 1.09167.44167 1.525.825s.775.88333 1.025 1.5.375 1.35833.375 2.225c0 .71667-.0917 1.34167-.275 1.875-.18333.53333-.425.99167-.725 1.375-.28333.36667-.6.6583-.95.875s-.69167.3583-1.025.425l3.3 8.325zm-.15-12.775c0-.6-.08333-1.09167-.25-1.475s-.38333-.69167-.65-.925-.575-.39167-.925-.475c-.35-.1-.7-.15-1.05-.15h-2.025v6.15h2.075c.85 0 1.53333-.26667 2.05-.8.51667-.55.775-1.325.775-2.325zm5.2047 12.775v-17.7h7.45v2h-5.275v5.575h4.925v1.875h-4.925v6.225h5.525v2.025zm20.4195-1.9c-.45.7-1.025 1.2667-1.725 1.7-.7.4167-1.55.625-2.55.625-.9833 0-1.8666-.2333-2.65-.7-.7833-.4667-1.4416-1.1167-1.975-1.95-.5333-.8333-.9416-1.8083-1.225-2.925-.2833-1.1333-.425-2.3667-.425-3.7 0-1.33333.1417-2.56667.425-3.7.3-1.13333.7167-2.10833 1.25-2.925.55-.83333 1.2084-1.48333 1.975-1.95.7834-.46667 1.6584-.700001 2.625-.700001.9 0 1.725.175001 2.475.525001s1.3667.88333 1.85 1.6l-1.4 1.525c-.3666-.53333-.7916-.925-1.275-1.175-.4833-.26667-1-.4-1.55-.4-.6833 0-1.275.19167-1.775.575s-.9166.9-1.25 1.55c-.3166.65-.5583 1.41667-.725 2.3-.1666.86667-.25 1.79167-.25 2.775 0 .9833.0834 1.9083.25 2.775.1667.8667.4167 1.6333.75 2.3.3334.65.75 1.1667 1.25 1.55.5167.3833 1.1167.575 1.8.575.6167 0 1.1584-.1667 1.625-.5.4834-.3333.8667-.7417 1.15-1.225zm9.6332 1.9-3-7.9h-2.05v7.9h-2.2v-17.7h4.575c.65 0 1.2584.09167 1.825.275.5834.16667 1.0917.44167 1.525.825.4334.38333.775.88333 1.025 1.5s.375 1.35833.375 2.225c0 .71667-.0916 1.34167-.275 1.875-.1833.53333-.425.99167-.725 1.375-.2833.36667-.6.6583-.95.875s-.6916.3583-1.025.425l3.3 8.325zm-.15-12.775c0-.6-.0833-1.09167-.25-1.475-.1666-.38333-.3833-.69167-.65-.925-.2666-.23333-.575-.39167-.925-.475-.35-.1-.7-.15-1.05-.15h-2.025v6.15h2.075c.85 0 1.5334-.26667 2.05-.8.5167-.55.775-1.325.775-2.325zm15.4797 6.7c0 .9-.0917 1.7417-.275 2.525s-.4833 1.475-.9 2.075c-.4167.5833-.9667 1.05-1.65 1.4-.6667.3333-1.4917.5-2.475.5s-1.8083-.1667-2.475-.5c-.65-.35-1.1833-.8167-1.6-1.4-.4167-.6-.7167-1.2917-.9-2.075-.1667-.7833-.25-1.625-.25-2.525v-11.625h2.25v11.4c0 .6.0417 1.1833.125 1.75.1.55.2583 1.0417.475 1.475.2333.4333.5417.7833.925 1.05.4.25.9.375 1.5.375s1.0917-.125 1.475-.375c.3833-.2667.6833-.6167.9-1.05.2333-.4333.3917-.925.475-1.475.1-.5667.15-1.15.15-1.75v-11.4h2.25zm3.641 6.075v-17.7h2.25v17.7zm9.8024-15.775v15.775h-2.225v-15.775h-3.375v-1.925h8.975v1.925z" fill="#fff"/></svg>

<svg width="76" height="20" viewBox="0 0 76 20" fill="none" xmlns="http://www.w3.org/2000/svg">
<path d="M8.2 19L5.2 11.1H3.15V19H0.95V1.3H5.525C6.175 1.3 6.78333 1.39167 7.35 1.575C7.93333 1.74167 8.44167 2.01667 8.875 2.4C9.30833 2.78333 9.65 3.28333 9.9 3.9C10.15 4.51667 10.275 5.25833 10.275 6.125C10.275 6.84167 10.1833 7.46667 10 8C9.81667 8.53333 9.575 8.99167 9.275 9.375C8.99167 9.74167 8.675 10.0333 8.325 10.25C7.975 10.4667 7.63333 10.6083 7.3 10.675L10.6 19H8.2ZM8.05 6.225C8.05 5.625 7.96667 5.13333 7.8 4.75C7.63333 4.36667 7.41667 4.05833 7.15 3.825C6.88333 3.59167 6.575 3.43333 6.225 3.35C5.875 3.25 5.525 3.2 5.175 3.2H3.15V9.35H5.225C6.075 9.35 6.75833 9.08333 7.275 8.55C7.79167 8 8.05 7.225 8.05 6.225ZM13.2547 19V1.3H20.7047V3.3H15.4297V8.875H20.3547V10.75H15.4297V16.975H20.9547V19H13.2547ZM33.6742 17.1C33.2242 17.8 32.6492 18.3667 31.9492 18.8C31.2492 19.2167 30.3992 19.425 29.3992 19.425C28.4159 19.425 27.5326 19.1917 26.7492 18.725C25.9659 18.2583 25.3076 17.6083 24.7742 16.775C24.2409 15.9417 23.8326 14.9667 23.5492 13.85C23.2659 12.7167 23.1242 11.4833 23.1242 10.15C23.1242 8.81667 23.2659 7.58333 23.5492 6.45C23.8492 5.31667 24.2659 4.34167 24.7992 3.525C25.3492 2.69167 26.0076 2.04167 26.7742 1.575C27.5576 1.10833 28.4326 0.874999 29.3992 0.874999C30.2992 0.874999 31.1242 1.05 31.8742 1.4C32.6242 1.75 33.2409 2.28333 33.7242 3L32.3242 4.525C31.9576 3.99167 31.5326 3.6 31.0492 3.35C30.5659 3.08333 30.0492 2.95 29.4992 2.95C28.8159 2.95 28.2242 3.14167 27.7242 3.525C27.2242 3.90833 26.8076 4.425 26.4742 5.075C26.1576 5.725 25.9159 6.49167 25.7492 7.375C25.5826 8.24167 25.4992 9.16667 25.4992 10.15C25.4992 11.1333 25.5826 12.0583 25.7492 12.925C25.9159 13.7917 26.1659 14.5583 26.4992 15.225C26.8326 15.875 27.2492 16.3917 27.7492 16.775C28.2659 17.1583 28.8659 17.35 29.5492 17.35C30.1659 17.35 30.7076 17.1833 31.1742 16.85C31.6576 16.5167 32.0409 16.1083 32.3242 15.625L33.6742 17.1ZM43.3074 19L40.3074 11.1H38.2574V19H36.0574V1.3H40.6324C41.2824 1.3 41.8908 1.39167 42.4574 1.575C43.0408 1.74167 43.5491 2.01667 43.9824 2.4C44.4158 2.78333 44.7574 3.28333 45.0074 3.9C45.2574 4.51667 45.3824 5.25833 45.3824 6.125C45.3824 6.84167 45.2908 7.46667 45.1074 8C44.9241 8.53333 44.6824 8.99167 44.3824 9.375C44.0991 9.74167 43.7824 10.0333 43.4324 10.25C43.0824 10.4667 42.7408 10.6083 42.4074 10.675L45.7074 19H43.3074ZM43.1574 6.225C43.1574 5.625 43.0741 5.13333 42.9074 4.75C42.7408 4.36667 42.5241 4.05833 42.2574 3.825C41.9908 3.59167 41.6824 3.43333 41.3324 3.35C40.9824 3.25 40.6324 3.2 40.2824 3.2H38.2574V9.35H40.3324C41.1824 9.35 41.8658 9.08333 42.3824 8.55C42.8991 8 43.1574 7.225 43.1574 6.225ZM58.6371 12.925C58.6371 13.825 58.5454 14.6667 58.3621 15.45C58.1788 16.2333 57.8788 16.925 57.4621 17.525C57.0454 18.1083 56.4954 18.575 55.8121 18.925C55.1454 19.2583 54.3204 19.425 53.3371 19.425C52.3538 19.425 51.5288 19.2583 50.8621 18.925C50.2121 18.575 49.6788 18.1083 49.2621 17.525C48.8454 16.925 48.5454 16.2333 48.3621 15.45C48.1954 14.6667 48.1121 13.825 48.1121 12.925V1.3H50.3621V12.7C50.3621 13.3 50.4038 13.8833 50.4871 14.45C50.5871 15 50.7454 15.4917 50.9621 15.925C51.1954 16.3583 51.5038 16.7083 51.8871 16.975C52.2871 17.225 52.7871 17.35 53.3871 17.35C53.9871 17.35 54.4788 17.225 54.8621 16.975C55.2454 16.7083 55.5454 16.3583 55.7621 15.925C55.9954 15.4917 56.1538 15 56.2371 14.45C56.3371 13.8833 56.3871 13.3 56.3871 12.7V1.3H58.6371V12.925ZM62.2781 19V1.3H64.5281V19H62.2781ZM72.0805 3.225V19H69.8555V3.225H66.4805V1.3H75.4555V3.225H72.0805Z" fill="white"/>
</svg>
